X: 281
T: Master Erskine's Hornpipe
R: hornpipe, reel
M: C
L: 1/8
Z: 2012 John Chambers <jc:trillian.mit.edu>
B: J. Anderson "Budget of Strathspeys, Reels and Country Dances" (Early 1800s) p.28 #1
F: http://imslp.org/wiki/Anderson%27s_Budget_of_Strathspeys,_Reels_and_Country_Dances_(Various)
K: D
d |\
.A(dcd) .A(dcd) | (fd)ad bdad | .A(dcd) .A(dcd) | f2e2 e4 |
.A(dcd) .A(dcd) | (fd)ad bdad | (Ad).c.e (db).a.g | f2d2d2 :|
|: f |\
(ab)ag (fg).f.e | (de).d.c (BA).G.F | FAdA FGAF | G2E2 E3g |
(ab)ag (fg)fe | (de).d.c (BA).G.F | FAdA Gbag | f2d2d2 |]

%%sep 2 1 500
%%sep 1 1 500

